X:1
T:Title
%%score { ( 1 3 ) | ( 2 4 ) }
L:1/8
Q:1/4=100
M:4/4
K:C
V:1 treble nm="Grand Piano"
V:3 treble 
V:2 bass 
V:4 bass 
V:1
 C3 D E2 G2 | A2 [FB]2 [Ec]2 G2 | [Gd]3 [^Fc] [GB]2 [DFA]2 | [DGB]2 [C^FA]2 [B,G]4 | C3 D E2 G2 | %5
w: D.~B.~Towner * * *|||||
 A2 [FB]2 [Ec]2 G2 | A3 B [Gc]2 d2 | c2 B2 [Ec]4 | d4 z4 | e4 c4 | f3 e dcBA | B2 c2 d4 | e4 c4 | %13
w: ||||||||
 d2 e2 [Af]4 | e3 f e2 .[Ad]2 | c4 z4 | [EGc]8- | [EGc]2 z2 z4 |] %18
w: |||||
V:2
 C,3 D, E,2 G,2 | [F,A,F]2 [D,G,]2 [C,G,]2 [E,C]2 | [D,B,]3 [D,A,] G,2 D,2 | G,2 D,2 G,4 | %4
 C,3 D, E,2 G,2 | [F,A,F]2 [D,G,]2 [C,G,]2 [E,C]2 | [F,CF]3 [F,DF] [E,C]2[K:treble] [F,A,F]2 | %7
 [G,E]2 [G,F]2[K:bass] [C,G,]4 | [G,B,F]2 [G,B,]2 [B,D]2 [B,D]2 | [CG]2 [G,C]2[K:bass] E,2 C,2 | %10
 z4 .F2 .D2 | [G,DG]2 [G,EG]2 [G,FG]4 | [CEG]2[K:bass] [G,C]2 [A,CE]2 [E,C]2 | [CG]4 z4 | %14
 [G,CG]3 [G,DG] [CG]2 z F | G,2 C2 G,4 | C,8- | C,2 z2 z4 |] %18
V:3
 x8 | x8 | x8 | x8 | x8 | x8 | x8 | x8 | z2 F2 G2 G2 | z2 G2 [CG]2 [EG]2 | x8 | x8 | z2 G2 z2 G2 | %13
 x8 | x8 | [CE]2 [EG]2 [FGB]4 | x8 | x8 |] %18
V:4
 x8 | x8 | x8 | x8 | x8 | x8 | x6[K:treble] x2 | x4[K:bass] x4 | x8 | x4[K:bass] x4 | %10
 [G,DG]3 [G,CG] [G,G]-[G,EG][G,G]-[G,CG] | x8 | x2[K:bass] x6 | F,2 E,2 [D,B,]4 | z4 z2 [F,C]2 | %15
 x8 | x8 | x8 |] %18

